X: 16983
T: He's O'er The Hill
R: jig
M: 6/8
K: Amajor
E|:EFA A2c|cBA F2A|EFA Aec|cBA A2F|
EFA A2c|cBA F2f|e2f ecA|1 cBA A2E:|2 cBA A2c||
|:e2f ecA|cBA F2f|e2f ecA|cBA A2c|
e2f ecA|cBA F2A|EFA Aec|1 cBA A2c:|2 cBA A2||

